assets/Man in steamy room/Medium-Light/Flat/man_in_steamy_room_flat_medium-light.svg

<svg width="32" height="32" viewBox="0 0 32 32" fill="none" xmlns="http://www.w3.org/2000/svg">
<path d="M10.7935 12C13.0971 12 14.97 13.8731 14.97 16.177C14.97 17.4491 14.3991 18.581 13.5077 19.3523C14.4391 20.4741 15 21.9265 15 23.4992C15 27.0851 12.0855 30 8.5 30C4.91448 30 2 27.0851 2 23.4992C2 20.5142 4.0131 18 6.75732 17.2387C6.66718 16.8982 6.6171 16.5376 6.6171 16.177C6.6171 13.8731 8.48998 12 10.7935 12Z" fill="#E6E6E6"/>
<path d="M25.3829 16.177C25.3829 16.5476 25.3328 16.8982 25.2427 17.2387C27.9769 18 29.99 20.5142 30 23.4992C30 27.0851 27.0855 30 23.5 30C19.9145 30 17 27.0851 17 23.4992C17 21.9265 17.5609 20.4741 18.4923 19.3523C17.6009 18.581 17.03 17.4491 17.03 16.177C17.03 13.8731 18.9029 12 21.2065 12C23.51 12 25.3829 13.8731 25.3829 16.177Z" fill="#E6E6E6"/>
<path d="M27 30H5C5 30 5 29.3371 5 29C5 22.9249 9.92487 18 16 18C22.0751 18 27 22.9249 27 29C27 29.3371 27 30 27 30Z" fill="#00A6ED"/>
<path d="M18.03 17.5901C18.03 17.9201 18.25 18.2001 18.57 18.2801C19.4234 18.4876 20.2377 18.7947 21 19.1882L15.975 29.9501L11 19.1655C11.7507 18.7828 12.5514 18.4836 13.39 18.2801C13.71 18.2001 13.93 17.9201 13.93 17.5901V15.6201C13.93 14.4901 14.85 13.5701 15.98 13.5701C17.11 13.5701 18.03 14.4901 18.03 15.6201V17.5901Z" fill="#E4B29A"/>
<path d="M12.75 10.625C12.75 11.5225 12.0225 12.25 11.125 12.25C10.2275 12.25 9.5 11.5225 9.5 10.625C9.5 9.72754 10.2275 9 11.125 9C12.0225 9 12.75 9.72754 12.75 10.625Z" fill="#E4B29A"/>
<path d="M22.5 10.625C22.5 11.5225 21.7725 12.25 20.875 12.25C19.9775 12.25 19.25 11.5225 19.25 10.625C19.25 9.72754 19.9775 9 20.875 9C21.7725 9 22.5 9.72754 22.5 10.625Z" fill="#E4B29A"/>
<path d="M11.0005 16.5C12.1013 15.5071 14.0005 15.5 14.0005 15.5V17.5C14.0005 18.1674 13.4416 18.2967 13.1112 18.3731C13.0703 18.3826 13.0329 18.3912 13.0005 18.4C12.5777 18.5293 12.6394 18.9801 13.0005 20L16.0002 27.4994L19 20C19.3611 18.9801 19.4228 18.5293 19 18.4C18.9676 18.3912 18.9302 18.3826 18.8893 18.3731C18.5589 18.2967 18 18.1674 18 17.5V15.5C18 15.5 19.8992 15.5071 21 16.5C21.943 17.3506 22.1882 18.8662 21.8665 19.8009L17.9597 30H14.0407L10.134 19.8009C9.81228 18.8662 10.0575 17.3506 11.0005 16.5Z" fill="#3BC6F6"/>
<path d="M15.554 3C14.8944 2.99966 14.2418 3.1376 13.6369 3.40521C13.032 3.67282 12.4878 4.06437 12.0382 4.55544C11.5886 5.0465 11.2433 5.62655 11.0238 6.25941C10.8042 6.89227 10.7152 7.56437 10.7622 8.23379L11.1338 13.9452C11.191 14.7775 11.5574 15.5565 12.1586 16.1238C12.7598 16.6912 13.5507 17.0044 14.3707 16.9999H17.588C18.4107 17.0071 19.2052 16.6954 19.8101 16.128C20.415 15.5606 20.7848 14.7801 20.8444 13.9452L21.2356 8.26364C21.2869 7.59182 21.201 6.91648 20.9833 6.28007C20.7657 5.64366 20.4211 5.05993 19.971 4.56559C19.521 4.07124 18.9753 3.67696 18.3683 3.40753C17.7613 3.1381 17.1061 2.99935 16.4439 3H15.554Z" fill="#EEBFAA"/>
<path d="M16.0005 13.8957C15.45 13.8957 14.9301 13.7569 14.4918 13.5219C14.3389 13.4365 14.186 13.618 14.2777 13.7675C14.6447 14.3549 15.2767 14.75 16.0005 14.75C16.7243 14.75 17.3563 14.3549 17.7233 13.7675C17.8151 13.618 17.652 13.4472 17.5093 13.5219C17.0709 13.7569 16.551 13.8957 16.0005 13.8957Z" fill="#990838"/>
<path d="M15.6446 10.2827L15.1488 12.0325C15.0459 12.3906 15.2891 12.7488 15.6352 12.7488H16.3648C16.7109 12.7488 16.9541 12.3906 16.8512 12.0325L16.3554 10.2827C16.2526 9.90413 15.7474 9.90413 15.6446 10.2827Z" fill="#D19479"/>
<path d="M12.2072 10.309C12.3572 9.65873 12.9172 9.17627 13.5872 9.17627C14.2872 9.17627 14.8572 9.6902 14.9772 10.3824C15.0072 10.5398 14.8972 10.6761 14.7472 10.6761H12.4772C12.2972 10.6761 12.1672 10.4978 12.2072 10.309Z" fill="white"/>
<path d="M19.8472 10.309C19.6972 9.65873 19.1372 9.17627 18.4672 9.17627C17.7772 9.17627 17.1972 9.6902 17.0772 10.3824C17.0472 10.5398 17.1572 10.6761 17.3072 10.6761H19.5772C19.7572 10.6761 19.8872 10.4978 19.8472 10.309Z" fill="white"/>
<path d="M12.8872 10.4226C12.8872 9.89448 13.2972 9.46143 13.7972 9.46143C14.3072 9.46143 14.7172 9.88391 14.7072 10.4226C14.7072 10.5071 14.6972 10.5916 14.6772 10.6761H12.9172C12.8972 10.5916 12.8872 10.5071 12.8872 10.4226Z" fill="#7D4533"/>
<path d="M19.1672 10.4226C19.1672 9.89448 18.7572 9.46143 18.2572 9.46143C17.7572 9.46143 17.3472 9.88391 17.3472 10.4226C17.3472 10.5071 17.3572 10.5916 17.3772 10.6761H19.1372C19.1572 10.5916 19.1672 10.5071 19.1672 10.4226Z" fill="#7D4533"/>
<path d="M13.7973 9.87354C14.0873 9.87354 14.3173 10.1165 14.3173 10.4228C14.3173 10.5178 14.2973 10.6023 14.2573 10.6763H13.3373C13.2973 10.6023 13.2773 10.5178 13.2773 10.4228C13.2773 10.1165 13.5073 9.87354 13.7973 9.87354Z" fill="black"/>
<path d="M18.2573 9.87354C17.9673 9.87354 17.7373 10.1165 17.7373 10.4228C17.7373 10.5178 17.7573 10.6023 17.7973 10.6763H18.7173C18.7573 10.6023 18.7773 10.5178 18.7773 10.4228C18.7773 10.1165 18.5473 9.87354 18.2573 9.87354Z" fill="black"/>
<path d="M13.6474 10.0425C13.6474 10.1359 13.5758 10.2115 13.4874 10.2115C13.399 10.2115 13.3274 10.1359 13.3274 10.0425C13.3274 9.9492 13.399 9.87354 13.4874 9.87354C13.5758 9.87354 13.6474 9.9492 13.6474 10.0425Z" fill="white"/>
<path d="M18.1374 10.0425C18.1374 10.1359 18.0657 10.2115 17.9774 10.2115C17.889 10.2115 17.8174 10.1359 17.8174 10.0425C17.8174 9.9492 17.889 9.87354 17.9774 9.87354C18.0657 9.87354 18.1374 9.9492 18.1374 10.0425Z" fill="white"/>
<path d="M19.15 8.94214C19.2495 9.01249 19.3681 9.05085 19.49 9.05214V9.04214C19.6058 9.04082 19.7184 9.00359 19.8122 8.93559C19.9061 8.86758 19.9765 8.77215 20.0138 8.66244C20.0511 8.55273 20.0534 8.43415 20.0205 8.32306C19.9876 8.21196 19.921 8.11381 19.83 8.04214C19.2135 7.61734 18.4632 7.43242 17.7199 7.52214C17.6464 7.53067 17.5753 7.55361 17.5106 7.58964C17.4459 7.62567 17.389 7.67408 17.343 7.73212C17.297 7.79016 17.263 7.85668 17.2427 7.92789C17.2224 7.99909 17.2164 8.0736 17.225 8.14714C17.2335 8.22068 17.2564 8.29182 17.2925 8.35649C17.3285 8.42117 17.3769 8.47811 17.4349 8.52408C17.493 8.57004 17.5595 8.60413 17.6307 8.62438C17.7019 8.64464 17.7764 8.65067 17.85 8.64214C18.3056 8.57498 18.7698 8.68211 19.15 8.94214Z" fill="#A56953"/>
<path d="M12.1376 8.9456C12.2314 9.0136 12.344 9.05083 12.4599 9.05215C12.5807 9.05381 12.6992 9.01895 12.7999 8.95215C13.18 8.69212 13.6442 8.58499 14.0999 8.65215C14.1734 8.66068 14.2479 8.65465 14.3191 8.63439C14.3903 8.61414 14.4569 8.58005 14.5149 8.53409C14.5729 8.48812 14.6214 8.43118 14.6574 8.3665C14.6934 8.30183 14.7164 8.23069 14.7249 8.15715C14.7334 8.08361 14.7274 8.0091 14.7071 7.9379C14.6869 7.86669 14.6528 7.80016 14.6068 7.74213C14.5609 7.68409 14.5039 7.63568 14.4392 7.59965C14.3746 7.56362 14.3034 7.54068 14.2299 7.53215C13.4867 7.44243 12.7363 7.62735 12.1199 8.05215C12.0288 8.12382 11.9623 8.22197 11.9293 8.33306C11.8964 8.44416 11.8988 8.56274 11.9361 8.67245C11.9734 8.78215 12.0438 8.87759 12.1376 8.9456Z" fill="#A56953"/>
<path d="M20.9485 4.40189L20.5524 4.18308C20.2667 4.0349 20.0078 3.83281 19.7879 3.58634L19.0049 2.75089C18.7182 2.4432 18.3572 2.22875 17.963 2.13203C17.5689 2.0353 17.1574 2.0602 16.7757 2.20388V2.20388C16.2684 2.39257 15.7172 2.39257 15.2098 2.20388C14.876 2.02301 14.4979 1.96027 14.1292 2.02454C13.7604 2.08881 13.4198 2.27683 13.1557 2.56192L12.2345 3.5565C12.0095 3.801 11.7479 4.00275 11.4608 4.15325L11.0647 4.37205C10.6926 4.55912 10.389 4.87502 10.2021 5.26962C10.0152 5.66422 9.95566 6.11491 10.033 6.55018L10.5673 9.69304C10.5926 9.84602 10.666 9.98491 10.775 10.0863C10.8841 10.1878 11.0221 10.2456 11.166 10.25C11.166 10.25 11.1107 9.35488 11.0739 8.77803C11.0734 8.62944 11.1038 8.48263 11.1628 8.34839C11.2218 8.21414 11.3078 8.09586 11.4147 8.00226L11.5897 7.83318C11.7087 7.72 11.8039 7.58072 11.869 7.42465C11.9342 7.26858 11.9677 7.0993 11.9674 6.92811V6.04294C11.9672 5.92373 12.0031 5.80772 12.0696 5.71257C12.1362 5.61742 12.2296 5.54833 12.3359 5.51582C13.5439 5.21442 14.7806 5.06754 16.0204 5.0782C17.2603 5.06652 18.4971 5.21342 19.705 5.51582C19.8154 5.54299 19.9139 5.61005 19.9843 5.7059C20.0546 5.80175 20.0926 5.92065 20.0918 6.04294V6.92811C20.0898 7.09864 20.1216 7.26765 20.1852 7.42378C20.2488 7.5799 20.3426 7.7195 20.4603 7.83318L20.6445 8.0122C20.7462 8.1078 20.8258 8.22772 20.877 8.3624C20.9282 8.49709 20.9495 8.64281 20.9393 8.78797C20.9393 9.36483 20.8564 10.25 20.8564 10.25C20.9965 10.2395 21.1295 10.1791 21.2345 10.0783C21.3395 9.97755 21.4106 9.84206 21.4367 9.69304L21.971 6.55018C22.0424 6.12057 21.9811 5.67751 21.7963 5.28929C21.6115 4.90107 21.3136 4.58925 20.9485 4.40189V4.40189Z" fill="#FFF9BA"/>
<path d="M2 30H11C11 26.6832 8.31388 24 4.99339 24H2V30Z" fill="#F4F4F4"/>
<path d="M30 30H21C21 26.6832 23.6861 24 27.0066 24H30V30Z" fill="#F4F4F4"/>
</svg>

<svg xmlns="http://www.w3.org/2000/svg" width="32" height="32" fill="none"><path fill="#E6E6E6" d="M10.793 12a4.18 4.18 0 0 1 4.177 4.177c0 1.272-.57 2.404-1.462 3.175A6.483 6.483 0 0 1 15 23.5C15 27.085 12.085 30 8.5 30a6.499 6.499 0 0 1-1.743-12.761c-.09-.34-.14-.701-.14-1.062A4.18 4.18 0 0 1 10.793 12ZM25.383 16.177c0 .37-.05.721-.14 1.062A6.522 6.522 0 0 1 30 23.499C30 27.085 27.085 30 23.5 30a6.506 6.506 0 0 1-6.5-6.5c0-1.573.56-3.026 1.492-4.148a4.187 4.187 0 0 1-1.462-3.175A4.18 4.18 0 0 1 21.206 12a4.18 4.18 0 0 1 4.177 4.177Z"/><path fill="#00A6ED" d="M27 30H5v-1c0-6.075 4.925-11 11-11s11 4.925 11 11v1Z"/><path fill="#E4B29A" d="M18.03 17.59c0 .33.22.61.54.69.853.208 1.668.515 2.43.908L15.975 29.95 11 19.166c.75-.383 1.551-.682 2.39-.886.32-.08.54-.36.54-.69v-1.97c0-1.13.92-2.05 2.05-2.05s2.05.92 2.05 2.05v1.97ZM12.75 10.625a1.625 1.625 0 1 1-3.25 0 1.625 1.625 0 0 1 3.25 0ZM22.5 10.625a1.625 1.625 0 1 1-3.25 0 1.625 1.625 0 0 1 3.25 0Z"/><path fill="#3BC6F6" d="M11 16.5c1.101-.993 3-1 3-1v2c0 .667-.558.797-.889.873-.04.01-.078.018-.11.027-.423.13-.362.58 0 1.6l3 7.5L19 20c.361-1.02.423-1.47 0-1.6-.032-.009-.07-.017-.11-.027-.331-.076-.89-.206-.89-.873v-2s1.9.007 3 1c.943.85 1.188 2.366.866 3.3L17.96 30h-3.92l-3.906-10.2c-.322-.934-.077-2.45.867-3.3Z"/><path fill="#EEBFAA" d="M15.554 3c-.66 0-1.312.138-1.917.405-.605.268-1.15.66-1.599 1.15a4.901 4.901 0 0 0-1.014 1.704 4.964 4.964 0 0 0-.262 1.975l.372 5.711a3.307 3.307 0 0 0 1.025 2.179c.6.567 1.392.88 2.212.876h3.217a3.206 3.206 0 0 0 2.222-.872 3.316 3.316 0 0 0 1.034-2.183l.392-5.681a4.963 4.963 0 0 0-.253-1.984 4.901 4.901 0 0 0-1.012-1.714 4.803 4.803 0 0 0-1.603-1.158A4.73 4.73 0 0 0 16.444 3h-.89Z"/><path fill="#990838" d="M16 13.896c-.55 0-1.07-.14-1.508-.374-.153-.085-.306.096-.214.245.367.588.999.983 1.722.983.724 0 1.356-.395 1.723-.982.092-.15-.071-.32-.214-.246a3.204 3.204 0 0 1-1.509.374Z"/><path fill="#D19479" d="m15.645 10.283-.496 1.75c-.103.358.14.716.486.716h.73c.346 0 .59-.358.486-.716l-.496-1.75a.364.364 0 0 0-.71 0Z"/><path fill="#fff" d="M12.207 10.309c.15-.65.71-1.133 1.38-1.133.7 0 1.27.514 1.39 1.206.03.158-.08.294-.23.294h-2.27c-.18 0-.31-.178-.27-.367ZM19.847 10.309c-.15-.65-.71-1.133-1.38-1.133-.69 0-1.27.514-1.39 1.206-.03.158.08.294.23.294h2.27c.18 0 .31-.178.27-.367Z"/><path fill="#7D4533" d="M12.887 10.423c0-.529.41-.962.91-.962.51 0 .92.423.91.962 0 .084-.01.169-.03.253h-1.76a1.097 1.097 0 0 1-.03-.253ZM19.167 10.423c0-.529-.41-.962-.91-.962s-.91.423-.91.962c0 .084.01.169.03.253h1.76c.02-.084.03-.169.03-.253Z"/><path fill="#000" d="M13.797 9.874c.29 0 .52.242.52.549 0 .095-.02.18-.06.253h-.92a.525.525 0 0 1-.06-.253c0-.306.23-.55.52-.55ZM18.257 9.874c-.29 0-.52.242-.52.549 0 .095.02.18.06.253h.92a.525.525 0 0 0 .06-.253c0-.306-.23-.55-.52-.55Z"/><path fill="#fff" d="M13.647 10.043a.165.165 0 0 1-.16.168.165.165 0 0 1-.16-.168c0-.094.072-.17.16-.17.089 0 .16.076.16.17ZM18.137 10.043a.165.165 0 0 1-.16.168.165.165 0 0 1-.16-.168c0-.094.072-.17.16-.17.089 0 .16.076.16.17Z"/><path fill="#A56953" d="M19.15 8.942a.6.6 0 0 0 .34.11v-.01a.56.56 0 0 0 .34-1 3.07 3.07 0 0 0-2.11-.52.564.564 0 0 0 .13 1.12c.456-.067.92.04 1.3.3ZM12.138 8.946a.56.56 0 0 0 .322.106.6.6 0 0 0 .34-.1 1.83 1.83 0 0 1 1.3-.3.564.564 0 0 0 .13-1.12 3.07 3.07 0 0 0-2.11.52.56.56 0 0 0 .018.894Z"/><path fill="#FFF9BA" d="m20.948 4.402-.396-.219a2.68 2.68 0 0 1-.764-.597l-.783-.835a2.116 2.116 0 0 0-1.042-.619 2.004 2.004 0 0 0-1.187.072 2.237 2.237 0 0 1-1.566 0 1.662 1.662 0 0 0-1.08-.18c-.37.065-.71.253-.974.538l-.921.995a2.853 2.853 0 0 1-.774.596l-.396.22a1.914 1.914 0 0 0-.863.897 2.13 2.13 0 0 0-.169 1.28l.534 3.143a.69.69 0 0 0 .208.393.6.6 0 0 0 .391.164l-.092-1.472c0-.149.03-.295.089-.43a.987.987 0 0 1 .252-.346l.175-.169c.119-.113.214-.252.279-.408.065-.156.099-.326.098-.497v-.885c0-.12.036-.235.103-.33a.508.508 0 0 1 .266-.197 14.69 14.69 0 0 1 3.684-.438c1.24-.011 2.477.135 3.685.438.11.027.209.094.28.19.07.096.108.215.107.337v.885c-.002.17.03.34.093.496.064.156.158.295.275.41l.184.178a.937.937 0 0 1 .233.35c.051.135.073.28.062.426 0 .577-.083 1.462-.083 1.462.14-.01.273-.07.378-.172a.701.701 0 0 0 .203-.385l.534-3.143a2.13 2.13 0 0 0-.175-1.26 1.916 1.916 0 0 0-.848-.888Z"/><path fill="#F4F4F4" d="M2 30h9a6 6 0 0 0-6.007-6H2v6ZM30 30h-9a6 6 0 0 1 6.007-6H30v6Z"/></svg>
